;FLAVOR:Marlin
;TIME:14956
;Filament used: 13.044m
;Layer height: 0.2
;MINX:76.835
;MINY:64.335
;MINZ:0.2
;MAXX:158.165
;MAXY:170.665
;MAXZ:21
;Generated with Cura_SteamEngine 4.11.0
M82 ;absolute extrusion mode
; Preamble
M220 S100 ;Reset Feedrate
M221 S100 ;Reset Flowrate

; - Home - this is used with the strain gauge as a zero position for the Z-offset
G28

; Remove the ";" before the next line if you want to level before each print (not recommended because it is not necessary)
;G29

; Now we know the positions we can move out of the way and happily droop at the side of the bed
M104 S215
M140 S65

G0 Z25
G0 X0 Y0

; Now wait for the temperatures to reach
M190 R65
M109 S215

; And we can now draw our purge line
G92 E0 ;Reset Extruder
G1 Z2.0 F3000 ;Move Z Axis up
G1 X0 Y20 Z0.28 F5000.0 ;Move to start position
G1 X0 Y200.0 Z0.28 F1500.0 E15 ;Draw the first line
G1 X0.3 Y200.0 Z0.28 F5000.0 ;Move to side a little
G1 X0.3 Y20 Z0.28 F1500.0 E30 ;Draw the second line
G92 E0 ;Reset Extruder
G1 Z2.0 F3000 ;Move Z Axis up
G92 E0
G92 E0
G1 F2100 E-5
;LAYER_COUNT:105
;LAYER:0
M107
G0 F9000 X85.1 Y141.6 Z0.2
;TYPE:SKIRT
G1 F2100 E0
G1 F1800 X149.9 Y141.6 E2.15526
G1 X149.9 Y162.4 E2.84707
G1 X85.1 Y162.4 E5.00232
G1 X85.1 Y141.6 E5.69414
G0 F9000 X84.7 Y141.2
G1 F1800 X150.3 Y141.2 E7.876
G1 X150.3 Y162.8 E8.59442
G1 X84.7 Y162.8 E10.77628
G1 X84.7 Y141.2 E11.4947
G0 F9000 X84.3 Y140.8
G1 F1800 X150.7 Y140.8 E13.70318
G1 X150.7 Y163.2 E14.4482
G1 X84.3 Y163.2 E16.65668
G1 X84.3 Y140.8 E17.4017
G0 F9000 X83.9 Y140.4
G1 F1800 X151.1 Y140.4 E19.63678
G1 X151.1 Y163.6 E20.40842
G1 X83.9 Y163.6 E22.6435
G1 X83.9 Y140.4 E23.41514
G0 F9000 X83.5 Y140
G1 F1800 X151.5 Y140 E25.67682
G1 X151.5 Y164 E26.47507
G1 X83.5 Y164 E28.73676
G1 X83.5 Y140 E29.535
G0 F9000 X83.1 Y139.6
G1 F1800 X151.9 Y139.6 E31.8233
G1 X151.9 Y164.4 E32.64815
G1 X83.1 Y164.4 E34.93645
G1 X83.1 Y139.6 E35.7613
G0 F9000 X82.7 Y139.2
G1 F1800 X152.3 Y139.2 E38.0762
G1 X152.3 Y164.8 E38.92766
G1 X82.7 Y164.8 E41.24257
G1 X82.7 Y139.2 E42.09403
G0 F9000 X82.3 Y138.8
G1 F1800 X152.7 Y138.8 E44.43554
G1 X152.7 Y165.2 E45.31361
G1 X82.3 Y165.2 E47.65512
G1 X82.3 Y138.8 E48.53319
G0 F9000 X81.9 Y138.4
G1 F1800 X153.1 Y138.4 E50.90131
G1 X153.1 Y165.6 E51.80599
G1 X81.9 Y165.6 E54.17411
G1 X81.9 Y138.4 E55.07878
G0 F9000 X81.5 Y138
G1 F1800 X153.5 Y138 E57.47351
G1 X153.5 Y166 E58.4048
G1 X81.5 Y166 E60.79953
G1 X81.5 Y138 E61.73081
G1 F2100 E56.73081
G0 F9000 X85.5 Y141.135
G0 X85.5 Y142
;TYPE:SUPPORT
G1 F2100 E61.73081
G1 F1800 X149.5 Y142 E63.85946
G1 X149.5 Y162 E64.52466
G1 X85.5 Y162 E66.65331
G1 X85.5 Y142 E67.31851
G0 F9000 X85.9 Y142.4
G1 F1800 X149.1 Y142.4 E69.42055
G1 X149.1 Y161.6 E70.05915
G1 X85.9 Y161.6 E72.16119
G1 X85.9 Y142.4 E72.79978
G0 F9000 X85.979 Y144
G1 F1800 X149.02 Y144 E74.89654
G1 F2100 E69.89654
G0 F9000 X150.365 Y144
G0 X150.353 Y141.147
G0 X144 Y141.135
G0 X144 Y142.48
G1 F2100 E74.89654
G1 F1800 X144 Y161.52 E75.52981
G1 F2100 E70.52981
G0 F9000 X144 Y162.865
G0 X150.353 Y162.853
G0 X150.365 Y160
G0 X149.02 Y160
G1 F2100 E75.52981
G1 F1800 X85.979 Y160 E77.62656
G0 F9000 X88 Y161.52
G1 F1800 X88 Y142.48 E78.25983
G1 F2100 E73.25983
G0 F9000 X88 Y141.135
G0 X96 Y141.135
G0 X96 Y142.48
G1 F2100 E78.25983
G1 F1800 X96 Y161.52 E78.89311
G1 F2100 E73.89311
G0 F9000 X96 Y162.865
G0 X104 Y162.865
G0 X104 Y161.52
G1 F2100 E78.89311
G1 F1800 X104 Y142.48 E79.52638
G1 F2100 E74.52638
G0 F9000 X104 Y141.135
G0 X112 Y141.135
G0 X112 Y142.48
G1 F2100 E79.52638
G1 F1800 X112 Y161.52 E80.15965
G1 F2100 E75.15965
G0 F9000 X112 Y162.865
G0 X120 Y162.865
G0 X120 Y161.52
G1 F2100 E80.15965
G1 F1800 X120 Y142.48 E80.79293
G1 F2100 E75.79293
G0 F9000 X120 Y141.135
G0 X128 Y141.135
G0 X128 Y142.48
G1 F2100 E80.79293
G1 F1800 X128 Y161.52 E81.4262
G1 F2100 E76.4262
G0 F9000 X128 Y162.865
G0 X136 Y162.865
G0 X136 Y161.52
G1 F2100 E81.4262
G1 F1800 X136 Y142.48 E82.05947
G1 F2100 E77.05947
G0 F9000 X136 Y141.135
G0 X150.353 Y141.147
G0 X150.365 Y152
G0 X149.02 Y152
G1 F2100 E82.05947
G1 F1800 X85.979 Y152 E84.15622
G1 F2100 E79.15622
;MESH:battery_holder_charging.stl
G0 F9000 X84.635 Y152
G0 X84.647 Y141.147
G0 X94.923 Y141.145
G0 X134.084 Y99.832
G0 X133.965 Y101.096
;TYPE:WALL-INNER
G1 F2100 E84.15622
G1 F1800 X134.63 Y101.096 E84.17834
G1 X135.284 Y100.973 E84.20048
G1 X135.904 Y100.734 E84.22258
G1 X136.468 Y100.383 E84.24467
G1 X136.96 Y99.936 E84.26678
G1 X137.361 Y99.405 E84.28891
G1 X137.657 Y98.81 E84.31101
G1 X137.838 Y98.171 E84.3331
G1 X137.901 Y97.509 E84.35522
G1 X137.838 Y96.846 E84.37737
G1 X137.657 Y96.207 E84.39946
G1 X137.36 Y95.611 E84.42161
G1 X136.96 Y95.082 E84.44367
G1 X136.468 Y94.635 E84.46578
G1 X135.904 Y94.284 E84.48787
G1 X135.284 Y94.044 E84.50998
G1 X134.63 Y93.921 E84.53212
G1 X133.965 Y93.921 E84.55424
G1 X133.312 Y94.044 E84.57634
G1 X132.691 Y94.283 E84.59847
G1 X132.127 Y94.635 E84.62058
G1 X131.635 Y95.082 E84.64269
G1 X131.235 Y95.611 E84.66475
G1 X130.938 Y96.207 E84.6869
G1 X130.757 Y96.846 E84.70899
G1 X130.695 Y97.509 E84.73113
G1 X130.757 Y98.171 E84.75325
G1 X130.938 Y98.81 E84.77534
G1 X131.234 Y99.405 E84.79744
G1 X131.635 Y99.936 E84.81957
G1 X132.127 Y100.384 E84.8417
G1 X132.692 Y100.734 E84.86381
G1 X133.312 Y100.973 E84.88591
G1 X133.965 Y101.096 E84.90801
G0 F9000 X134.002 Y100.696
;TYPE:WALL-OUTER
G1 F1800 X134.593 Y100.696 E84.92767
G1 X135.174 Y100.587 E84.94733
G1 X135.725 Y100.374 E84.96698
G1 X136.226 Y100.063 E84.98659
G1 X136.663 Y99.665 E85.00625
G1 X137.019 Y99.194 E85.02588
G1 X137.282 Y98.665 E85.04553
G1 X137.443 Y98.097 E85.06517
G1 X137.499 Y97.509 E85.08482
G1 X137.443 Y96.92 E85.10449
G1 X137.282 Y96.352 E85.12413
G1 X137.019 Y95.823 E85.14378
G1 X136.663 Y95.353 E85.16339
G1 X136.226 Y94.955 E85.18305
G1 X135.725 Y94.643 E85.20268
G1 X135.174 Y94.43 E85.22233
G1 X134.593 Y94.321 E85.24199
G1 X134.002 Y94.321 E85.26165
G1 X133.422 Y94.43 E85.28127
G1 X132.87 Y94.643 E85.30095
G1 X132.369 Y94.955 E85.32058
G1 X131.932 Y95.353 E85.34024
G1 X131.576 Y95.823 E85.35985
G1 X131.313 Y96.352 E85.3795
G1 X131.152 Y96.92 E85.39914
G1 X131.097 Y97.509 E85.41881
G1 X131.152 Y98.097 E85.43846
G1 X131.313 Y98.665 E85.45809
G1 X131.576 Y99.194 E85.47774
G1 X131.932 Y99.665 E85.49738
G1 X132.369 Y100.063 E85.51704
G1 X132.871 Y100.374 E85.53668
G1 X133.422 Y100.587 E85.55633
G1 X134.002 Y100.696 E85.57595
G0 F9000 X133.962 Y101.134
G1 F2100 E80.57595
G0 F9000 X134.084 Y99.832
G0 X100.745 Y99.787
G0 X100.864 Y101.051
;TYPE:WALL-INNER
G1 F2100 E85.57595
G1 F1800 X101.517 Y100.928 E85.59806
G1 X102.137 Y100.689 E85.62016
G1 X102.702 Y100.338 E85.64228
G1 X103.193 Y99.891 E85.66436
G1 X103.594 Y99.361 E85.68647
G1 X103.891 Y98.766 E85.70859
G1 X104.072 Y98.126 E85.73071
G1 X104.134 Y97.464 E85.75282
G1 X104.072 Y96.802 E85.77494
G1 X103.891 Y96.162 E85.79706
G1 X103.594 Y95.567 E85.81918
G1 X103.193 Y95.037 E85.84128
G1 X102.703 Y94.59 E85.86334
G1 X102.138 Y94.238 E85.88548
G1 X101.516 Y93.998 E85.90766
G1 X100.863 Y93.877 E85.92975
G1 X100.2 Y93.877 E85.9518
G1 X99.545 Y93.998 E85.97395
G1 X98.925 Y94.239 E85.99608
G1 X98.361 Y94.59 E86.01817
G1 X97.869 Y95.037 E86.04028
G1 X97.469 Y95.567 E86.06236
G1 X97.172 Y96.162 E86.08448
G1 X96.991 Y96.802 E86.1066
G1 X96.928 Y97.464 E86.12872
G1 X96.991 Y98.126 E86.15084
G1 X97.172 Y98.766 E86.17296
G1 X97.469 Y99.361 E86.19508
G1 X97.869 Y99.891 E86.21716
G1 X98.361 Y100.338 E86.23927
G1 X98.925 Y100.689 E86.26137
G1 X99.545 Y100.928 E86.28347
G1 X100.199 Y101.051 E86.3056
G1 X100.864 Y101.051 E86.32772
G0 F9000 X100.827 Y100.651
;TYPE:WALL-OUTER
G1 F1800 X101.407 Y100.542 E86.34735
G1 X101.958 Y100.329 E86.367
G1 X102.46 Y100.018 E86.38664
G1 X102.896 Y99.62 E86.40627
G1 X103.253 Y99.149 E86.42593
G1 X103.516 Y98.621 E86.44555
G1 X103.677 Y98.052 E86.46522
G1 X103.732 Y97.464 E86.48486
G1 X103.677 Y96.876 E86.5045
G1 X103.516 Y96.307 E86.52417
G1 X103.253 Y95.779 E86.54379
G1 X102.896 Y95.308 E86.56345
G1 X102.46 Y94.91 E86.58308
G1 X101.959 Y94.598 E86.60271
G1 X101.407 Y94.385 E86.62239
G1 X100.826 Y94.277 E86.64204
G1 X100.237 Y94.277 E86.66163
G1 X99.655 Y94.385 E86.68132
G1 X99.104 Y94.598 E86.70097
G1 X98.603 Y94.91 E86.7206
G1 X98.166 Y95.308 E86.74026
G1 X97.81 Y95.779 E86.7599
G1 X97.547 Y96.307 E86.77952
G1 X97.386 Y96.876 E86.79918
G1 X97.33 Y97.464 E86.81883
G1 X97.386 Y98.052 E86.83848
G1 X97.547 Y98.621 E86.85814
G1 X97.81 Y99.149 E86.87776
G1 X98.166 Y99.62 E86.8974
G1 X98.603 Y100.018 E86.91706
G1 X99.104 Y100.329 E86.93667
G1 X99.655 Y100.542 E86.95632
G1 X100.236 Y100.651 E86.97598
G1 X100.827 Y100.651 E86.99564
G0 F9000 X100.867 Y101.089
G1 F2100 E81.99564
G0 F9000 X100.745 Y99.787
G0 X88.573 Y141.136
G0 X84.647 Y141.147
G0 X81.153 Y166.347
G0 X79.9 Y167.6
;TYPE:WALL-INNER
G1 F2100 E86.99564
G1 F1800 X155.1 Y167.6 E89.4968
G1 X155.1 Y136.4 E90.53452
G1 X79.9 Y136.4 E93.03568
G1 X79.9 Y167.6 E94.07339
G0 F9000 X80.3 Y167.2
;TYPE:WALL-OUTER
G1 F1800 X154.7 Y167.2 E96.54795
G1 X154.7 Y136.8 E97.55906
G1 X80.3 Y136.8 E100.03361
G1 X80.3 Y167.2 E101.04472
G1 F2100 E96.04472
G0 F9000 X81.153 Y166.347
G0 X156.9 Y170.665
G0 X156.9 Y169.4
;TYPE:WALL-INNER
G1 F2100 E101.04472
G1 F1800 X78.1 Y169.4 E103.66562
G1 X78.1 Y65.6 E107.11802
G1 X156.9 Y65.6 E109.73892
G1 X156.9 Y169.4 E113.19132
G0 F9000 X157.3 Y169.8
;TYPE:WALL-OUTER
G1 F1800 X77.7 Y169.8 E115.83883
G1 X77.7 Y65.2 E119.31784
G1 X157.3 Y65.2 E121.96534
G1 X157.3 Y169.8 E125.44435
G0 F9000 X156.51 Y169.01
;TYPE:SKIN
G1 F1800 X78.49 Y169.01 E128.03931
G1 X78.49 Y65.99 E131.46577
G1 X156.51 Y65.99 E134.06072
G1 X156.51 Y169.01 E137.48718
G0 F9000 X155.49 Y167.99
G1 F1800 X155.49 Y136.01 E138.55084
G1 X79.51 Y136.01 E141.07795
G1 X79.51 Y167.99 E142.14161
G1 X155.49 Y167.99 E144.66871
G1 F2100 E139.66871
G0 F9000 X153.847 Y166.347
G0 X150.353 Y141.147
G0 X146.687 Y141.135
G0 X134.937 Y99.752
G0 X135.391 Y101.35
G1 F2100 E144.66871
G1 F1800 X136.079 Y101.085 E144.69323
G1 X136.704 Y100.695 E144.71774
G1 X137.249 Y100.2 E144.74222
G1 X137.694 Y99.611 E144.76678
G1 X138.022 Y98.951 E144.79129
G1 X138.222 Y98.243 E144.81576
G1 X138.293 Y97.509 E144.84029
G1 X138.222 Y96.774 E144.86485
G1 X138.022 Y96.066 E144.88932
G1 X137.693 Y95.404 E144.9139
G1 X137.249 Y94.818 E144.93836
G1 X136.704 Y94.323 E144.96284
G1 X136.079 Y93.933 E144.98735
G1 X135.391 Y93.668 E145.01187
G1 X134.667 Y93.531 E145.03638
G1 X133.928 Y93.531 E145.06096
G1 X133.205 Y93.667 E145.08542
G1 X132.516 Y93.932 E145.10998
G1 X131.891 Y94.323 E145.1345
G1 X131.346 Y94.818 E145.15898
G1 X130.902 Y95.404 E145.18344
G1 X130.573 Y96.066 E145.20803
G1 X130.372 Y96.774 E145.2325
G1 X130.303 Y97.509 E145.25706
G1 X130.372 Y98.243 E145.28158
G1 X130.573 Y98.951 E145.30606
G1 X130.901 Y99.611 E145.33057
G1 X131.346 Y100.2 E145.35512
G1 X131.891 Y100.696 E145.37963
G1 X132.518 Y101.085 E145.40417
G1 X133.205 Y101.35 E145.42867
G1 X133.928 Y101.486 E145.45313
G1 X134.667 Y101.486 E145.47771
G1 X135.391 Y101.35 E145.50221
G1 F2100 E140.50221
G0 F9000 X134.937 Y99.752
G0 X101.933 Y99.329
G0 X102.938 Y100.65
G1 F2100 E145.50221
G1 F1800 X103.482 Y100.155 E145.52668
G1 X103.927 Y99.568 E145.55118
G1 X104.256 Y98.908 E145.57571
G1 X104.457 Y98.198 E145.60025
G1 X104.526 Y97.464 E145.62477
G1 X104.457 Y96.73 E145.64929
G1 X104.256 Y96.02 E145.67383
G1 X103.927 Y95.36 E145.69836
G1 X103.482 Y94.773 E145.72286
G1 X102.939 Y94.278 E145.7473
G1 X102.313 Y93.887 E145.77185
G1 X101.623 Y93.621 E145.79644
G1 X100.898 Y93.487 E145.82096
G1 X100.165 Y93.487 E145.84534
G1 X99.438 Y93.621 E145.86993
G1 X98.75 Y93.888 E145.89448
G1 X98.125 Y94.278 E145.91898
G1 X97.58 Y94.773 E145.94347
G1 X97.136 Y95.36 E145.96795
G1 X96.807 Y96.02 E145.99247
G1 X96.607 Y96.73 E146.01701
G1 X96.536 Y97.464 E146.04154
G1 X96.607 Y98.198 E146.06606
G1 X96.807 Y98.908 E146.0906
G1 X97.136 Y99.568 E146.11512
G1 X97.58 Y100.155 E146.1396
G1 X98.125 Y100.65 E146.16409
G1 X98.75 Y101.04 E146.18859
G1 X99.438 Y101.305 E146.21312
G1 X100.162 Y101.441 E146.23762
G1 X100.901 Y101.441 E146.2622
G1 X101.624 Y101.305 E146.28666
G1 X102.312 Y101.04 E146.31119
G1 X102.938 Y100.65 E146.33572
G1 F2100 E141.33572
G0 F9000 X101.933 Y99.329
G0 X156.094 Y64.335
G0 X156.094 Y66.15
G1 F2100 E146.33572
G1 F1800 X156.35 Y66.406 E146.34776
G0 F9000 X156.35 Y66.972
G1 F1800 X155.528 Y66.15 E146.38642
G0 F9000 X154.963 Y66.15
G1 F1800 X156.35 Y67.537 E146.45166
G0 F9000 X156.35 Y68.103
G1 F1800 X154.397 Y66.15 E146.54353
G0 F9000 X153.831 Y66.15
G1 F1800 X156.35 Y68.669 E146.66201
G0 F9000 X156.35 Y69.234
G1 F1800 X153.266 Y66.15 E146.80707
G0 F9000 X152.7 Y66.15
G1 F1800 X156.35 Y69.8 E146.97876
G0 F9000 X156.35 Y70.366
G1 F1800 X152.134 Y66.15 E147.17707
G0 F9000 X151.569 Y66.15
G1 F1800 X156.35 Y70.932 E147.40197
G0 F9000 X156.35 Y71.497
G1 F1800 X151.003 Y66.15 E147.65348
G0 F9000 X150.437 Y66.15
G1 F1800 X156.35 Y72.063 E147.93161
G0 F9000 X156.35 Y72.629
G1 F1800 X149.871 Y66.15 E148.23636
G0 F9000 X149.306 Y66.15
G1 F1800 X156.35 Y73.194 E148.56769
G0 F9000 X156.35 Y73.76
G1 F1800 X148.74 Y66.15 E148.92564
G0 F9000 X148.174 Y66.15
G1 F1800 X156.35 Y74.326 E149.31022
G0 F9000 X156.35 Y74.891
G1 F1800 X147.609 Y66.15 E149.72137
G0 F9000 X147.043 Y66.15
G1 F1800 X156.35 Y75.457 E150.15914
G0 F9000 X156.35 Y76.023
G1 F1800 X146.477 Y66.15 E150.62353
G0 F9000 X145.912 Y66.15
G1 F1800 X156.35 Y76.588 E151.11451
G0 F9000 X156.35 Y77.154
G1 F1800 X145.346 Y66.15 E151.6321
G0 F9000 X144.78 Y66.15
G1 F1800 X156.35 Y77.72 E152.17632
G0 F9000 X156.35 Y78.285
G1 F1800 X144.215 Y66.15 E152.74711
G0 F9000 X143.649 Y66.15
G1 F1800 X156.35 Y78.851 E153.34453
G0 F9000 X156.35 Y79.417
G1 F1800 X143.083 Y66.15 E153.96857
G0 F9000 X142.518 Y66.15
G1 F1800 X156.35 Y79.982 E154.61918
G0 F9000 X156.35 Y80.548
G1 F1800 X141.952 Y66.15 E155.29642
G0 F9000 X141.386 Y66.15
G1 F1800 X156.35 Y81.114 E156.00028
G0 F9000 X156.35 Y81.68
G1 F1800 X140.821 Y66.15 E156.73074
G0 F9000 X140.255 Y66.15
G1 F1800 X156.35 Y82.245 E157.4878
G0 F9000 X156.35 Y82.811
G1 F1800 X139.689 Y66.15 E158.27148
G0 F9000 X139.123 Y66.15
G1 F1800 X156.35 Y83.377 E159.08179
G0 F9000 X156.35 Y83.942
G1 F1800 X138.558 Y66.15 E159.91867
G0 F9000 X137.992 Y66.15
G1 F1800 X156.35 Y84.508 E160.78217
G0 F9000 X156.35 Y85.074
G1 F1800 X137.426 Y66.15 E161.6723
G0 F9000 X136.861 Y66.15
G1 F1800 X156.35 Y85.639 E162.589
G0 F9000 X156.35 Y86.205
G1 F1800 X136.295 Y66.15 E163.53233
G0 F9000 X135.729 Y66.15
G1 F1800 X156.35 Y86.771 E164.50227
G0 F9000 X156.35 Y87.336
G1 F1800 X135.164 Y66.15 E165.4988
G0 F9000 X134.598 Y66.15
G1 F1800 X156.35 Y87.902 E166.52195
G0 F9000 X156.35 Y88.468
G1 F1800 X134.032 Y66.15 E167.57172
G0 F9000 X133.467 Y66.15
G1 F1800 X156.35 Y89.033 E168.64806
G0 F9000 X156.35 Y89.599
G1 F1800 X132.901 Y66.15 E169.75103
G0 F9000 X132.335 Y66.15
G1 F1800 X156.35 Y90.165 E170.88062
G0 F9000 X156.35 Y90.73
G1 F1800 X131.77 Y66.15 E172.03679
G0 F9000 X131.204 Y66.15
G1 F1800 X156.35 Y91.296 E173.21958
G0 F9000 X156.35 Y91.862
G1 F1800 X130.638 Y66.15 E174.429
G0 F9000 X130.072 Y66.15
G1 F1800 X156.35 Y92.428 E175.66503
G0 F9000 X156.35 Y92.993
G1 F1800 X129.507 Y66.15 E176.92765
G0 F9000 X128.941 Y66.15
G1 F1800 X156.35 Y93.559 E178.21688
G0 F9000 X156.35 Y94.125
G1 F1800 X128.375 Y66.15 E179.53274
G0 F9000 X127.81 Y66.15
G1 F1800 X156.35 Y94.69 E180.87517
G0 F9000 X156.35 Y95.256
G1 F1800 X127.244 Y66.15 E182.24423
G0 F9000 X126.678 Y66.15
G1 F1800 X156.35 Y95.822 E183.63991
G0 F9000 X156.35 Y96.387
G1 F1800 X126.113 Y66.15 E185.06217
G0 F9000 X125.547 Y66.15
G1 F1800 X156.35 Y96.953 E186.51104
G0 F9000 X156.35 Y97.519
G1 F1800 X124.981 Y66.15 E187.98655
G0 F9000 X124.416 Y66.15
G1 F1800 X156.35 Y98.084 E189.48862
G0 F9000 X156.35 Y98.65
G1 F1800 X123.85 Y66.15 E191.01732
G0 F9000 X123.284 Y66.15
G1 F1800 X156.35 Y99.216 E192.57265
G0 F9000 X156.35 Y99.781
G1 F1800 X122.719 Y66.15 E194.15455
G0 F9000 X122.153 Y66.15
G1 F1800 X156.35 Y100.347 E195.76307
G0 F9000 X156.35 Y100.913
G1 F1800 X121.587 Y66.15 E197.39821
G0 F9000 X121.022 Y66.15
G1 F1800 X156.35 Y101.479 E199.05996
G0 F9000 X156.35 Y102.044
G1 F1800 X120.456 Y66.15 E200.7483
